!!!ONB: MCCC : IJH0401_04 : Extracted Monophonic Melody
!!!COM: Haydn, Joseph
!!!OPR: String Quartet in A major
!!!OMV: 4
!!!SCT: Hob.III:36 ; Op.20 No.6
!!!ODT: 1772///
**kern
*thru
*k[f#c#g#]
*A:
*clefF
*M4/4
8ee
8ee
8ee
8cc#
16b
16cc#
8a
8cc#
=1
8b
4bb
16gg#
16ee
8aa
8a
8r
8a
=2
8g#
4gg#
16ee
16cc#
8ff#
8f#
8r
8f#
=3
8e
4ee
16cc#
16a
8dd
16ee
16ff#
8ee
8dd
=4
4cc#
8.dd#
32cc#
32dd#
4ee
4r
=5
4.r
8ff#
8gg#
16aa
16bb
16aa
16bb
16gg#
16aa
=6
4ff#
8r
8dd#
8ee
16ff#
16gg#
16ff#
16gg#
16ee
16ff#
=7
4dd#
2ee
4dd#
=8
8ee
16g#
16a
8b
16a
16b
4cc#
4aa[
=9
4aa]
2gg#
4ff#[
=10
4ff#]
2ee
4dd[
=11
4dd]
4cc#
2b
=12
4a
2.r
=13
1r
=14
1r
=15
1r
=16
8r
8ee
8ee
8ee
8cc#
16b
16cc#
8a
8cc#
=17
8b
4bb
16gg#
16ee
8aa
8a
8r
8a
=18
8g#
4gg#
16ee
16cc#
8ff#
8f#
8r
8f#
=19
8e
4ee
16cc#
16a
8dd
16ee
16ff#
8ee
8dd
=20
8cc#
8ee
2aa
4gg#[
=21
8gg#]
16aa
16ee
2ff#
4ee[
=22
8ee]
16ff#
16cc#
2dd
4cc#[
=23
4cc#]
2b
8a
8g#
=24
4f#
4b#
4cc#
4r
=25
1r
=26
1r
=27
4.r
8a
8g
4gg
16ee
16cc#
=28
8ff#
8f#
8r
8f#
8e
4ee
16cc#
16a
=29
8dd
8d
8r
8b
8a
8aa
8aa
8aa
=30
8ff#
16ee
16ff#
8dd
8ff#
8ee
4eee
16ccc#
16aa
=31
8ddd
8dd
8r
8dd
8cc#
4ccc#
16aa
16ff#
=32
8bb
8b
8r
8b
8a
4aa
16ff#
16dd
=33
8gg
16aa
16bb
16aa
16bb
16gg
16aa
8ff#
16gg
16aa
16gg
16aa
16ff#
16gg
=34
8ee
16ff#
16gg
16ff#
16gg
16ee
16ff#
4dd
4r
=35
8r
8ff#
8ff#
8ee
8dd
16cc#
16dd
8b
8dd#
=36
4.ee
8dd
8cc#
16b
16cc#
8a
8cc#
=37
4b
4ee
8dd
16cc#
16dd
8b
8dd
=38
4cc#
4ff#
8ee
16dd#
16ee
8cc#
8ee
=39
4.dd#
8dd#
8ee
8ff#
8gg#
8cc#
=40
16aa
16bb
16ccc#
16bb
16aa
16bb
16gg#
16aa
4ff#
8r
8ff#
=41
16gg#
16aa
16bb
16aa
16gg#
16aa
16ff#
16gg#
4ee
8r
8ee
=42
16ff#
16gg#
16aa
16gg#
16ff#
16gg#
16ee
16ff#
4dd#
8r
8dd#
=43
4g#
4.r
8gg#
8gg#
8gg#
=44
8ee
16dd#
16ee
8cc#
8ee
8dd#
4ddd#
16bb
16gg#
=45
8ccc#
8cc#
8r
8cc#
8b
4bb
16gg#
16ee#
=46
4ff#
2.r
=47
4.r
8ff#
4ff#
4ee[
=48
4ee]
2dd
4cc#[
=49
4cc#]
2b
4a#
=50
2f#[
8f#]
8ff#
8ff#
8ff#
=51
8dd
16cc#
16dd
8b
8dd#
4ee
4r
=52
4.r
8a
8g#
4gg#
16ee
16cc#
=53
8ff#
8f#
8r
8f#
8e
4ee
16cc#
16a
=54
4.dd#
16ee
16dd#
4.cc#
16dd#
16cc#
=55
4b#
2cc#
4b#
=56
4cc#
2.r
=57
8r
8ccc#
8ccc#
8ccc#
8aa
16gg#
16aa
4ff#
=58
8r
8ff#
8ff#
8ff#
8dd#
16cc#
16dd#
4b
=59
8r
8bb
8bb
8bb
8gg#
16ff#
16gg#
4ee
=60
8r
8ee
8ee
8ee
8cc#
16b
16cc#
8a
8cc#
=61
8b
4bb
16gg#
16ee
8aa
8a
8r
8a
=62
8g#
4gg#
16ee
16cc#
8ff#
8f#
8r
8f#
=63
8e
4ee
16cc#
16a
8dd
8d
8d
16c#
16d
=64
4c#
2.r
=65
4.r
8f#
8g#
16a
16b
16a
16b
16g#
16a
=66
4f#
8r
8d
8e
16f#
16g#
16f#
16g#
16e
16f#
=67
4d
8r
8B
8c#
8ee
8dd
8cc#
=68
8b
8ee
8ee
8ee
8cc#
16b
16cc#
8a
8cc#
=69
8b
4bb
16gg#
16ee
8aa
8a
8r
8a
=70
8g#
4gg#
16ee
16cc#
8ff#
8f#
8r
8f#
=71
8e
4ee
16cc#
16a
8f#
4aa
16ff#
16dd#
=72
8ee
8e
2ee
4dd[
=73
4dd]
2cc#
4b[
=74
4b]
2a
4g#
=75
8a
8ee
8ee
8ee
8cc#
16b
16cc#
4a
=76
8r
8aa
8aa
8aa
8ff#
16ee
16ff#
8dd
16cc#
16dd
=77
8b
16a
16b
8g#
8ee
8cc#
16b
16cc#
8a
16ff#
16ee
=78
16dd
16ee
16cc#
16dd
16b
16cc#
16a
16b
4g#
4r
=79
8r
8ee
8ee
8ee
16ff#
16ee
16ff#
16gg#
8aa
8ccc#
=80
8bb
4b
16ee
16gg#
8a
8aa
8r
8aa
=81
8gg#
4g#
16cc#
16ee
8f#
8ff#
8r
8ff#
=82
8ee
4e
16a
16cc#
8d
8dd
8cc#
8a
=83
4g#
2.r
=84
1r
=85
1r
=86
8r
8ee
8ee
8ee
8cc#
16b
16cc#
16a
16cc#
16b
16a
=87
8g#
8a
8b
16a
16b
8cc#
8dd
8ee
8aa
=88
4aa
2gg#
4ff#[
=89
4ff#]
2ee
4dd[
=90
4dd]
4cc#
2b
=91
8a
8e
8e
8e
8c#
16B
16c#
8A
8f#
=92
8d
16c#
16d
8B
8g#
16a
16b
16cc#
16b
16a
16g#
16f#
16e
=93
8d
8b
8e
8g#
4A
4gg#
=94
4aa
2.r
==
*-
